svg/u1f1ed.svg

<svg viewBox="0 0 128 128" xmlns="http://www.w3.org/2000/svg">
  <path d="m109.48 16.34h-24.64c-1.28 0-2.33 1.04-2.33 2.33v36.27h-37.01v-36.26c0-1.29-1.04-2.33-2.34-2.33h-24.63c-1.28 0-2.34 1.04-2.34 2.33v99.96c0 1.29 1.05 2.33 2.34 2.33h24.63c1.29 0 2.34-1.05 2.34-2.33v-42.49h37.02v42.48c0 1.29 1.05 2.33 2.33 2.33h24.64c1.29 0 2.33-1.05 2.33-2.33v-99.95c-0.01-1.29-1.05-2.34-2.34-2.34z" fill="#40C0E7"/>
</svg>

<svg viewBox="0 0 128 128" xmlns="http://www.w3.org/2000/svg">
  <defs/>
  <path d="M109.48,16.34 L84.84,16.34 C83.56,16.34 82.51,17.38 82.51,18.67 L82.51,54.94 L45.5,54.94 L45.5,18.68 C45.5,17.39 44.46,16.35 43.16,16.35 L18.53,16.35 C17.25,16.35 16.19,17.39 16.19,18.68 L16.19,118.64 C16.19,119.93 17.24,120.97 18.53,120.97 L43.16,120.97 C44.45,120.97 45.5,119.92 45.5,118.64 L45.5,76.15 L82.52,76.15 L82.52,118.63 C82.52,119.92 83.57,120.96 84.85,120.96 L109.49,120.96 C110.78,120.96 111.82,119.91 111.82,118.63 L111.82,18.68 C111.81,17.39 110.77,16.34 109.48,16.34 Z" fill="#40C0E7"/>
</svg>
